image/new.svg

<svg width="217" height="50" viewBox="0 0 217 50" fill="none" xmlns="http://www.w3.org/2000/svg">
<path d="M6.59819 26.2312V18.0579L4.12183 19.2253C4.12183 19.2253 3.5393 20.6847 3.5393 22.7288C3.68551 24.3335 4.55931 26.2312 5.14069 26.9614L6.59819 26.2312ZM13.7348 9.44744C14.3174 9.44744 15.3362 9.7393 16.065 10.4695C16.7925 11.1986 16.9388 12.3672 16.7925 13.3881C16.5024 14.2637 16.3562 14.7021 15.3362 15.4312C14.4624 16.0149 13.2973 16.0149 13.2973 16.0149V19.9556L15.1912 21.5602L13.2973 23.166V28.2742C13.2973 28.2742 15.1912 27.1067 16.3562 24.7719C16.3562 24.7719 16.3562 24.6253 16.5013 24.3335C16.6475 25.0637 16.5013 26.3765 15.7737 27.9823C15.1722 29.3379 14.1508 30.4633 12.861 31.1916C10.5297 32.5056 8.92717 32.5056 7.03567 32.2149C4.85058 31.7765 2.95676 30.6091 1.64664 28.4195C0.772839 26.9602 0.335358 25.3556 0.335358 23.4579C0.481572 19.8091 3.10298 16.7451 6.16071 15.5777C6.59819 15.4312 6.74324 15.2858 7.18072 15.2858C6.88945 15.4312 6.59819 15.723 6.30692 15.8695C5.2869 16.4533 4.4131 17.766 4.12183 18.7881L10.0934 16.1602V24.6253L5.2869 27.1067C5.86944 27.8358 7.47199 29.0033 8.92833 29.1498C11.4047 29.4405 12.861 28.4195 12.861 28.4195V22.8742L10.9672 21.2695L12.861 19.6637V15.723C11.841 15.5777 10.5297 15.2858 9.80213 15.1393C8.78211 14.8486 5.14185 13.8253 4.55931 13.8253C3.97678 13.68 3.24803 13.8253 2.81171 14.1184C2.37423 14.5556 2.08296 15.1393 2.37423 15.723C2.52044 16.0149 2.6655 16.3067 2.95676 16.4533C2.95676 16.4533 2.81171 16.4533 2.37423 16.1614C1.79169 15.8695 1.20916 15.1393 1.20916 14.1184C1.06411 12.8044 1.64664 11.637 2.6655 10.9067C3.5393 10.323 4.70437 9.88581 5.86944 10.0312C7.61704 10.323 10.0934 11.3451 12.1323 11.7823C13.0061 11.9288 13.5886 12.0753 14.1711 11.7823C14.4624 11.637 14.8999 11.0533 14.4624 10.4695C14.0261 9.7393 13.1511 9.7393 12.4235 9.59395C13.1523 9.30209 13.2973 9.30209 13.7348 9.44744ZM37.1824 24.0428L34.416 26.0858V19.3719L37.1824 24.0428ZM37.1824 17.6207C37.1824 17.6207 35.2898 18.7881 34.1247 19.5184C32.8134 20.2474 31.212 21.123 31.212 21.123V28.8579L30.047 29.7335L30.192 29.88L31.212 29.0044L34.561 32.0684L40.5326 27.3986L40.3864 27.2533L37.1836 29.88L34.561 27.3986V26.523L39.95 22.5835L37.1824 17.6207ZM21.599 34.9881C22.8902 35.2506 24.2324 35.0441 25.3855 34.4056C27.2793 33.53 28.1531 31.487 28.1531 29.5893L28.2982 26.8172V20.6858L29.4633 19.8102L29.3182 19.6649L28.1531 20.5405L25.5306 17.6219L22.1816 20.5405V10.4707L17.8126 13.8265C17.9576 13.973 18.5402 14.1195 18.6864 14.8486V28.8602L16.9388 30.1742L17.0838 30.3195L17.8126 29.7358L20.2878 31.9242L24.0754 28.8602L23.9292 28.7137L23.0554 29.444L22.0354 28.5684V20.8335L23.2004 19.9579L24.803 22.0009V28.7137C24.803 30.4649 24.803 32.6544 23.7841 33.8219C22.9092 34.6974 22.6179 34.8416 21.599 34.9881ZM48.1055 34.4091C46.6492 34.2626 45.9204 33.2416 45.9204 32.5114C45.9204 32.0742 46.3579 31.1974 47.2317 31.0521C48.1055 30.9067 49.1244 31.344 49.8531 32.366L53.3483 28.4253V28.28L52.4745 29.3009C51.4545 28.1335 50.1444 27.5498 48.8331 27.2579V15.437L58.0086 32.0742C58.0086 32.0742 58.1548 32.2195 58.4461 32.2195C58.7362 32.2195 58.7362 31.9288 58.7362 31.9288V15.144C59.465 15.144 60.63 14.7056 61.2126 14.1219C62.9602 12.3707 62.2326 10.3277 62.0864 10.1823C61.9413 11.0579 61.3588 11.9335 60.1937 11.9335C58.7374 11.9335 57.8636 10.9114 57.8636 10.9114L54.366 14.9998L54.221 15.1463L55.241 13.9788C56.4061 15.1463 57.4249 15.2928 58.2987 15.2928V25.0695L51.4534 12.8114C50.8708 11.7893 49.852 10.9137 48.3956 10.9137C46.648 10.9137 45.483 12.373 45.3367 13.687C45.1905 15.1463 45.3367 15.4381 45.3367 15.4381C45.3367 15.4381 45.628 13.8335 46.648 13.8335C47.5218 13.8335 47.9593 14.7079 48.3956 15.2916V18.7951C47.5218 18.7951 45.0455 18.9405 44.8993 21.4219C44.8993 22.2974 45.483 23.3184 45.9204 23.6102C46.2563 23.8691 46.6615 24.0217 47.0844 24.0486C47.0844 24.0486 46.3568 23.6102 46.5018 22.8812C46.648 22.1509 48.2494 22.0056 48.2494 22.2974V27.4044C47.5218 27.4044 45.1905 27.4044 44.1717 29.4486C43.5891 30.616 43.5891 32.0753 44.3167 32.9509C45.0455 33.68 46.0655 34.7021 48.1044 34.4102L48.1055 34.4091ZM67.4777 24.0428L64.7101 26.0858V19.3719L67.4777 24.0428ZM67.3315 17.6207C67.3315 17.6207 65.4388 18.7881 64.2738 19.5184C62.9625 20.2474 61.3611 21.123 61.3611 21.123V28.8579L60.3411 29.7335L60.4861 29.88L61.5073 29.0044L64.8563 32.0684L70.8267 27.3986L70.6816 27.2533L67.4777 29.88L64.8551 27.3986V26.523L70.2442 22.5835L67.3315 17.6207ZM75.6297 32.2114L72.717 29.7312L71.4058 30.6067L71.2607 30.4602L72.572 29.5846V22.8719C72.572 20.0986 70.0956 20.8288 70.2418 17.9102C70.2418 16.5963 71.5531 15.5753 72.1345 15.2823C72.8633 14.9916 73.5908 14.9916 73.5908 14.9916C73.5908 14.9916 72.4258 15.7207 72.717 16.7428C73.1545 18.3474 75.921 18.494 76.0672 20.6823V28.2719L78.1061 29.8765L78.6886 29.4393V21.1207L77.5235 20.0986L80.4362 17.4719L83.0588 19.8067L82.0376 20.9742V28.2719L84.514 30.3149L84.9514 30.023V21.1207L83.7864 20.0986L86.699 17.4719L89.4667 19.6614L90.4855 18.6393L90.6317 18.7858L88.1554 20.9742V28.1253L81.8925 31.9195L78.8348 29.7312L75.6297 32.2114ZM202.629 24.0428L199.862 26.0858V19.3719L202.629 24.0428ZM202.629 17.6207C202.629 17.6207 200.737 18.7881 199.57 19.5184C198.26 20.2474 196.658 21.123 196.658 21.123V28.8579L195.493 29.7335L195.639 29.88L196.658 29.0044L200.008 32.0684L205.979 27.3986L205.833 27.2533L202.629 29.88L200.008 27.3986V26.523L205.397 22.5835L202.629 17.6207ZM174.811 20.9765L174.957 21.123L176.122 20.1021L177.724 21.9986V28.4207L176.995 29.1498L179.472 32.0684L182.239 29.4416L181.074 28.2742V20.5393L181.802 20.1021L183.549 22.1451V28.566L182.822 29.2963L185.297 32.0684L187.919 29.4416L186.9 28.4207V20.5393L187.627 19.9556L189.521 22.1451V28.566L188.939 29.1498L191.56 32.0684L195.201 28.7126L195.055 28.566L194.181 29.4416L192.871 27.837V20.5393L194.036 19.6637L193.89 19.373L192.725 20.394L190.249 17.6207L186.753 20.394L184.278 17.766L180.928 20.394L178.452 17.766L174.811 20.9765Z" fill="black"/>
<path d="M167.533 20.6835L167.678 20.8288L168.552 20.0986L170.155 21.8498V29.1474L168.99 30.023L169.135 30.1684L170.3 29.2928L172.631 32.0661L176.126 29.0009L175.98 28.8556L174.961 29.7312L173.505 28.1265V20.8288L174.67 19.8067L174.524 19.6614L173.505 20.6835L170.882 17.7649L167.533 20.6835ZM168.549 14.5556L171.17 12.2207L173.21 14.5556L170.588 16.8905L168.549 14.5556Z" fill="black"/>
<path d="M157.913 26.2313V18.0581L155.437 19.2255C155.437 19.2255 154.854 20.686 154.854 22.729C155.001 24.3336 155.874 26.2313 156.457 26.9615L157.913 26.2313ZM165.05 9.44876C165.633 9.44876 166.651 9.73946 167.38 10.4697C168.108 11.1999 168.254 12.3674 168.108 13.3883C167.816 14.2639 167.671 14.7022 166.651 15.4313C165.778 16.015 164.612 16.015 164.612 16.015V19.9557L166.506 21.5604L164.612 23.1662V28.2743C164.612 28.2743 166.506 27.1069 167.671 24.772C167.671 24.772 167.671 24.6255 167.816 24.3336C167.963 25.0639 167.816 26.3767 167.089 27.9825C166.487 29.3379 165.466 30.4632 164.176 31.1918C161.845 32.5057 160.243 32.5057 158.35 32.215C156.166 31.7767 154.272 30.6092 152.962 28.4197C152.088 26.9604 151.651 25.2104 151.651 23.3127C151.797 19.6639 154.418 16.5988 157.476 15.4313C157.913 15.286 158.058 15.1406 158.496 15.1406C158.205 15.286 157.913 15.5778 157.622 15.7232C156.602 16.3069 155.728 17.6208 155.437 18.6418L161.409 16.015V24.4802L156.602 26.9604C157.185 27.6906 158.787 28.8581 160.243 29.0034C162.72 29.2953 164.176 28.2743 164.176 28.2743V22.7278L162.282 21.1232L164.176 19.5185V15.5767C163.156 15.4313 161.845 15.1395 161.117 14.9941C160.097 14.7022 156.457 13.6802 155.874 13.6802C155.292 13.5348 154.563 13.6802 154.127 13.972C153.689 14.4104 153.398 14.9941 153.689 15.5767C153.836 15.8697 153.981 16.1615 154.272 16.3069C154.272 16.3069 154.127 16.3069 153.689 16.0162C152.962 15.5778 152.524 14.8476 152.379 13.8267C152.233 12.5127 152.816 11.3453 153.836 10.6162C154.709 10.0325 155.874 9.59411 157.04 9.74062C158.787 10.0313 161.262 11.0546 163.302 11.4918C164.176 11.6371 164.759 11.7825 165.341 11.4918C165.633 11.3453 166.069 10.7615 165.633 10.1778C165.195 9.44876 164.321 9.44876 163.594 9.30225C164.467 9.30225 164.612 9.30225 165.05 9.44876ZM210.207 19.2267V23.0232L211.517 24.1906C211.517 24.1906 214.285 22.0011 215.303 19.8127C215.303 19.8127 213.993 21.5639 212.391 20.979C211.081 20.5418 210.207 19.2267 210.207 19.2267ZM207.148 29.4429C207.148 29.4429 208.313 27.3999 210.498 27.8383C212.537 28.2755 213.265 30.3185 213.265 30.3185V25.3569L211.808 24.1895C210.207 25.7941 207.439 27.9836 207.148 29.4429ZM209.187 33.0906C208.751 33.2371 207.148 32.7999 206.71 31.0476C206.274 29.2964 207.439 28.129 209.333 26.3778L207.148 24.4813V20.8325C207.148 20.8325 208.751 20.1022 209.916 19.2278C211.081 18.4976 212.391 17.622 212.391 17.622C212.391 17.622 213.265 18.7895 214.285 18.6429C215.886 18.4976 215.886 17.1836 215.741 16.8918C216.032 17.3302 216.76 18.7895 213.847 22.1464L216.177 24.0429V28.8592C216.177 28.8592 213.556 30.3185 210.934 32.0697C210.934 32.0697 209.478 30.3185 208.313 31.1941C207.585 31.7778 208.022 32.6534 209.187 33.0906ZM116.119 27.6941L119.178 30.4674V22.1488L116.119 19.3755V27.6941ZM122.236 20.8348L123.256 19.8139L123.401 19.9592L122.527 20.9813V28.7162C122.527 28.7162 120.635 29.7371 119.323 30.4674C118.013 31.1964 116.556 32.072 116.556 32.072L113.06 29.1534L112.187 30.029L111.75 29.7383L112.769 28.8615V20.5429C112.769 20.5429 114.371 19.8139 115.828 18.9383C116.72 18.4344 117.595 17.8992 118.45 17.3336L122.236 20.8348ZM129.225 20.0988L131.409 17.7639C131.409 17.7639 131.7 18.0557 131.992 18.2022C132.138 18.3476 132.866 18.6395 133.448 18.3476C133.74 18.2022 133.886 18.0569 134.177 17.7639C134.323 19.515 133.448 20.829 132.283 21.2674C131.847 21.4127 130.535 21.8511 129.225 20.2441V28.5639L130.682 29.8778L131.847 28.8546L131.992 29.0011L128.496 32.0662L125.584 29.4383L124.565 30.4615L124.419 30.315L126.021 28.8557V21.7046L124.856 20.0999L123.836 20.9743H123.691L127.331 17.765L129.225 20.0988ZM138.694 23.6046L142.917 17.6209C142.917 17.6209 143.5 18.2046 144.373 18.4964C145.685 18.7883 146.85 17.6209 146.85 17.6209C146.704 19.2255 145.83 21.1232 144.082 21.4162C142.626 21.7069 141.17 20.5395 141.17 20.5395L140.878 20.9778L146.704 29.7336L147.869 28.7127L148.015 28.8581L144.082 32.3604L138.694 23.6046Z" fill="black"/>
<path d="M135.346 15.4371C135.346 14.1231 134.764 13.3941 134.181 13.3941L138.697 10.1836V28.2789L139.862 29.5929L140.736 28.8627L140.881 29.008L137.24 32.2185L134.764 29.7382L133.745 30.6138L133.599 30.4673L135.346 29.008V15.4371ZM106.217 20.5406C106.217 20.5406 105.78 21.1243 104.906 21.1243C104.179 21.1243 103.595 20.5406 103.595 20.5406V23.0231C103.595 23.0231 104.179 22.4394 104.906 22.4394C105.635 22.4394 106.217 23.0231 106.217 23.0231V20.5406ZM106.217 15.2871L104.47 13.6824L103.596 14.4115V20.2487C103.596 20.2487 104.179 20.9789 104.907 20.9789C105.635 20.9789 106.217 20.3952 106.217 20.3952V15.2871ZM103.595 31.6324C103.595 31.6324 104.616 31.9231 105.489 31.3406C106.362 30.6103 106.217 29.5894 106.217 29.5894V23.3138C106.217 23.3138 105.78 22.7301 104.906 22.7301C104.179 22.7301 103.595 23.4592 103.595 23.4592V31.6324ZM97.3344 15.1394C97.3344 13.972 96.8969 13.2429 96.0231 13.2429C94.858 13.2429 94.5667 14.8475 94.5667 14.8475C94.5667 14.8475 94.4217 13.5336 95.4405 12.5127C96.0231 11.9289 97.1881 11.0534 98.7907 11.3452C100.538 11.7836 101.121 13.0964 101.121 14.4103V31.1929C101.121 31.1929 101.848 31.3394 102.286 31.3394C102.868 31.4848 103.305 31.6301 103.305 31.6301V11.3475H103.597V14.1208L107.237 11.2022L109.86 13.5371L111.17 12.515L111.315 12.6615L110.004 13.6824V29.2987C110.004 30.3196 109.714 31.3417 108.84 31.9255C106.655 33.2394 104.18 31.7789 101.848 31.3417C100.101 31.0499 97.4794 30.758 96.7518 32.3627C96.4606 32.9464 96.6056 33.6766 97.3344 34.2603C98.9357 35.2813 105.782 32.5092 108.257 33.6766C110.441 34.6975 110.441 36.3034 110.15 37.3243C109.568 39.3685 106.947 39.8057 106.947 39.8057C106.947 39.8057 108.257 39.0766 107.82 37.908C107.675 37.3243 107.237 37.1789 105.927 37.3243C103.015 37.6162 99.3732 39.0766 97.0431 38.0545C95.878 37.4708 95.0042 36.0115 95.0042 34.5522C95.0042 32.3627 97.6256 31.4871 97.6256 31.4871V23.4603C97.6256 23.1696 96.1693 23.1696 95.878 23.7522C95.4405 24.6278 96.4606 25.0661 96.4606 25.0661C96.4606 25.0661 95.5868 25.2115 95.0042 24.3359C94.713 23.8987 93.9842 22.5848 94.858 21.272C95.5868 20.2499 96.4594 20.1045 97.6256 19.958V15.1417H97.3344V15.1394Z" fill="black"/>
</svg>

<svg xmlns="http://www.w3.org/2000/svg" width="217" height="50" fill="none"><path fill="#000" d="M6.598 26.231v-8.173l-2.476 1.167s-.583 1.46-.583 3.504c.147 1.605 1.02 3.502 1.602 4.232l1.457-.73Zm7.137-16.784c.582 0 1.601.292 2.33 1.023.727.729.874 1.897.727 2.918-.29.876-.436 1.314-1.456 2.043-.874.584-2.039.584-2.039.584v3.94l1.894 1.605-1.894 1.606v5.108s1.894-1.167 3.06-3.502c0 0 0-.147.144-.438.146.73 0 2.043-.727 3.648a6.898 6.898 0 0 1-2.913 3.21c-2.331 1.314-3.934 1.314-5.825 1.023-2.185-.439-4.08-1.606-5.39-3.796-.873-1.459-1.31-3.063-1.31-4.961.146-3.649 2.767-6.713 5.825-7.88.437-.147.582-.292 1.02-.292-.292.145-.583.437-.874.584-1.02.583-1.894 1.896-2.185 2.918l5.971-2.628v8.465l-4.806 2.482c.582.729 2.185 1.896 3.641 2.043 2.477.29 3.933-.73 3.933-.73v-5.546l-1.894-1.604 1.894-1.606v-3.941c-1.02-.145-2.331-.437-3.059-.584-1.02-.29-4.66-1.314-5.243-1.314-.582-.145-1.311 0-1.747.293-.438.438-.729 1.021-.438 1.605.146.292.292.584.583.73 0 0-.145 0-.583-.292-.582-.292-1.165-1.022-1.165-2.043-.145-1.314.438-2.481 1.457-3.211.873-.584 2.038-1.021 3.203-.876 1.748.292 4.224 1.314 6.263 1.751.874.147 1.457.293 2.04 0 .29-.145.728-.729.29-1.313-.436-.73-1.31-.73-2.038-.875.728-.292.873-.292 1.31-.147Zm23.447 14.596-2.766 2.043v-6.714l2.766 4.67Zm0-6.422s-1.892 1.167-3.057 1.897c-1.312.73-2.913 1.605-2.913 1.605v7.735l-1.165.875.145.147 1.02-.876 3.349 3.064 5.972-4.67-.147-.145-3.202 2.627-2.623-2.481v-.876l5.389-3.94-2.768-4.962ZM21.6 34.988a5.538 5.538 0 0 0 3.787-.582c1.893-.876 2.767-2.919 2.767-4.817l.145-2.772v-6.131l1.165-.876-.145-.145-1.165.876-2.622-2.92-3.35 2.92V10.47l-4.368 3.355c.145.147.727.293.873 1.023V28.86l-1.747 1.314.145.146.729-.584 2.475 2.188 3.787-3.064-.146-.146-.874.73-1.02-.876v-7.735l1.165-.875L24.803 22v6.713c0 1.75 0 3.94-1.019 5.108-.875.875-1.166 1.02-2.185 1.166Zm26.506-.579c-1.456-.146-2.185-1.167-2.185-1.898 0-.437.438-1.314 1.312-1.459.873-.145 1.892.292 2.621 1.314l3.495-3.94v-.146l-.873 1.02c-1.02-1.166-2.33-1.75-3.642-2.042V15.437l9.176 16.637s.146.145.437.145c.29 0 .29-.29.29-.29V15.144c.729 0 1.894-.438 2.477-1.022 1.747-1.751 1.02-3.794.873-3.94-.145.876-.727 1.752-1.892 1.752-1.457 0-2.33-1.023-2.33-1.023L54.366 15l-.145.146 1.02-1.167c1.165 1.167 2.184 1.314 3.058 1.314v9.777L51.453 12.81c-.582-1.022-1.601-1.897-3.057-1.897-1.748 0-2.913 1.459-3.06 2.773-.145 1.46 0 1.751 0 1.751s.292-1.604 1.312-1.604c.874 0 1.311.874 1.748 1.458v3.503c-.874 0-3.35.145-3.497 2.627 0 .875.584 1.896 1.021 2.188.336.26.741.412 1.164.439 0 0-.727-.439-.582-1.168.146-.73 1.747-.875 1.747-.584v5.107c-.727 0-3.059 0-4.077 2.045-.583 1.167-.583 2.626.145 3.502.728.729 1.748 1.751 3.787 1.46l.002-.002Zm19.373-10.366-2.768 2.043v-6.714l2.768 4.67Zm-.146-6.422s-1.893 1.167-3.058 1.897c-1.312.73-2.913 1.605-2.913 1.605v7.735l-1.02.875.145.147 1.021-.876 3.35 3.064 5.97-4.67-.145-.145-3.204 2.627-2.623-2.481v-.876l5.39-3.94-2.913-4.962Zm8.298 14.59-2.913-2.48-1.311.876-.145-.147 1.311-.875v-6.713c0-2.773-2.476-2.043-2.33-4.962 0-1.314 1.311-2.335 1.892-2.628.73-.29 1.457-.29 1.457-.29s-1.165.729-.874 1.75c.438 1.605 3.204 1.752 3.35 3.94v7.59l2.04 1.605.582-.438v-8.318l-1.165-1.022 2.912-2.627 2.623 2.335-1.021 1.167v7.298l2.476 2.043.437-.292v-8.902l-1.165-1.022 2.913-2.627 2.768 2.19 1.019-1.023.146.147-2.477 2.188v7.151l-6.263 3.794-3.057-2.188-3.205 2.48Zm126.999-8.168-2.767 2.043v-6.714l2.767 4.67Zm0-6.422s-1.892 1.167-3.059 1.897c-1.31.73-2.912 1.605-2.912 1.605v7.735l-1.165.875.146.147 1.019-.876 3.35 3.064 5.971-4.67-.146-.145-3.204 2.627-2.621-2.481v-.876l5.389-3.94-2.768-4.962Zm-27.818 3.356.146.146 1.165-1.02 1.602 1.896v6.422l-.729.729 2.477 2.918 2.767-2.626-1.165-1.168V20.54l.728-.437 1.747 2.043v6.421l-.727.73 2.475 2.772 2.622-2.626-1.019-1.021v-7.882l.727-.583 1.894 2.19v6.42l-.582.584 2.621 2.918 3.641-3.355-.146-.147-.874.876-1.31-1.605v-7.298l1.165-.875-.146-.291-1.165 1.021-2.476-2.773-3.496 2.773-2.475-2.628-3.35 2.628-2.476-2.628-3.641 3.21Z"/><path fill="#000" d="m167.533 20.683.145.146.874-.73 1.603 1.75v7.298l-1.165.876.145.145 1.165-.875 2.331 2.773 3.495-3.065-.146-.145-1.019.875-1.456-1.605V20.83l1.165-1.022-.146-.146-1.019 1.022-2.623-2.918-3.349 2.918Zm1.016-6.127 2.621-2.335 2.04 2.335-2.622 2.335-2.039-2.335Z"/><path fill="#000" d="M157.913 26.231v-8.173l-2.476 1.168s-.583 1.46-.583 3.503c.147 1.605 1.02 3.502 1.603 4.233l1.456-.73ZM165.05 9.45c.583 0 1.601.29 2.33 1.02.728.73.874 1.898.728 2.92-.292.875-.437 1.313-1.457 2.042-.873.584-2.039.584-2.039.584v3.94l1.894 1.605-1.894 1.606v5.108s1.894-1.167 3.059-3.502c0 0 0-.146.145-.438.147.73 0 2.043-.727 3.649a6.902 6.902 0 0 1-2.913 3.209c-2.331 1.314-3.933 1.314-5.826 1.023-2.184-.438-4.078-1.606-5.388-3.795-.874-1.46-1.311-3.21-1.311-5.107.146-3.65 2.767-6.714 5.825-7.882.437-.145.582-.29 1.02-.29-.291.145-.583.437-.874.582-1.02.584-1.894 1.898-2.185 2.919l5.972-2.627v8.465l-4.807 2.48c.583.73 2.185 1.898 3.641 2.043 2.477.292 3.933-.729 3.933-.729v-5.546l-1.894-1.605 1.894-1.605v-3.941c-1.02-.146-2.331-.438-3.059-.583-1.02-.292-4.66-1.314-5.243-1.314-.582-.145-1.311 0-1.747.292-.438.438-.729 1.022-.438 1.605.147.293.292.585.583.73 0 0-.145 0-.583-.29-.727-.44-1.165-1.17-1.31-2.19-.146-1.314.437-2.482 1.457-3.21.873-.585 2.038-1.023 3.204-.876 1.747.29 4.222 1.314 6.262 1.75.874.146 1.457.292 2.039 0 .292-.146.728-.73.292-1.313-.438-.73-1.312-.73-2.039-.876.873 0 1.018 0 1.456.147Zm45.157 9.778v3.796l1.31 1.168s2.768-2.19 3.786-4.378c0 0-1.31 1.75-2.912 1.166-1.31-.437-2.184-1.752-2.184-1.752Zm-3.059 10.216s1.165-2.043 3.35-1.605c2.039.438 2.767 2.48 2.767 2.48v-4.961l-1.457-1.168c-1.601 1.605-4.369 3.795-4.66 5.254Zm2.039 3.648c-.436.146-2.039-.291-2.477-2.043-.436-1.752.729-2.919 2.623-4.67l-2.185-1.897v-3.649s1.603-.73 2.768-1.604c1.165-.73 2.475-1.606 2.475-1.606s.874 1.168 1.894 1.02c1.601-.144 1.601-1.458 1.456-1.75.291.438 1.019 1.898-1.894 5.254l2.33 1.897v4.816s-2.621 1.46-5.243 3.21c0 0-1.456-1.75-2.621-.875-.728.584-.291 1.46.874 1.897Zm-93.068-5.397 3.059 2.773V22.15l-3.059-2.774v8.32Zm6.117-6.86 1.02-1.02.145.145-.874 1.022v7.735s-1.892 1.021-3.204 1.751c-1.31.73-2.767 1.605-2.767 1.605l-3.496-2.919-.873.876-.437-.29 1.019-.878v-8.318s1.602-.73 3.059-1.605a43.8 43.8 0 0 0 2.622-1.604l3.786 3.5Zm6.989-.735 2.184-2.335s.291.292.583.438c.146.146.874.438 1.456.146.292-.146.438-.291.729-.584.146 1.751-.729 3.065-1.894 3.503-.436.146-1.748.584-3.058-1.023v8.32l1.457 1.314 1.165-1.023.145.146-3.496 3.065-2.912-2.628-1.019 1.024-.146-.147 1.602-1.46v-7.15l-1.165-1.605-1.02.874h-.145l3.64-3.209 1.894 2.334Zm9.469 3.506 4.223-5.984s.583.584 1.456.875c1.312.292 2.477-.875 2.477-.875-.146 1.605-1.02 3.502-2.768 3.795-1.456.29-2.912-.877-2.912-.877l-.292.439 5.826 8.756 1.165-1.021.146.145-3.933 3.502-5.388-8.755Z"/><path fill="#000" d="M135.346 15.437c0-1.314-.582-2.043-1.165-2.043l4.516-3.21v18.095l1.165 1.314.874-.73.145.145-3.641 3.21-2.476-2.48-1.019.876-.146-.147 1.747-1.459v-13.57Zm-29.129 5.104s-.437.583-1.311.583c-.727 0-1.311-.583-1.311-.583v2.482s.584-.584 1.311-.584c.729 0 1.311.584 1.311.584v-2.482Zm0-5.254-1.747-1.605-.874.73v5.837s.583.73 1.311.73 1.31-.584 1.31-.584v-5.108Zm-2.622 16.345s1.021.291 1.894-.291c.873-.73.728-1.752.728-1.752v-6.275s-.437-.584-1.311-.584c-.727 0-1.311.73-1.311.73v8.172Zm-6.26-16.493c0-1.167-.438-1.896-1.312-1.896-1.165 0-1.456 1.604-1.456 1.604s-.145-1.313.874-2.334c.582-.584 1.747-1.46 3.35-1.168 1.747.439 2.33 1.751 2.33 3.065v16.783s.727.146 1.165.146c.582.146 1.019.291 1.019.291V11.348h.292v2.773l3.64-2.919 2.623 2.335 1.31-1.022.145.146-1.311 1.021V29.3c0 1.02-.29 2.043-1.164 2.627-2.185 1.313-4.66-.147-6.992-.584-1.747-.292-4.369-.584-5.096 1.02-.291.584-.146 1.315.582 1.898 1.602 1.021 8.448-1.75 10.923-.583 2.184 1.02 2.184 2.626 1.893 3.647-.582 2.044-3.203 2.482-3.203 2.482s1.31-.73.873-1.898c-.145-.584-.583-.73-1.893-.584-2.912.292-6.554 1.753-8.884.73-1.165-.583-2.039-2.043-2.039-3.502 0-2.19 2.622-3.065 2.622-3.065V23.46c0-.29-1.457-.29-1.748.292-.438.876.583 1.314.583 1.314s-.874.146-1.457-.73c-.291-.437-1.02-1.751-.146-3.064.729-1.022 1.601-1.167 2.768-1.314v-4.816h-.292v-.003Z"/></svg>
